X:1
T:Queste lagrim'amare
T:Queste lagrim'amare
T:Giulio Caccini
T:Source : Le nuove Musiche di G.Caccini detto Romano---Firenze---G.Marescotti-- Editor : André Vierendeels (01/11/16).
T:Notes : Original clefs : C1, F4 Editorial accidentals above the staff Figures in Bc are notated in original print Square bracket indicates ligature  
T:©
T:©
T:©
T:©
T:©
T:©
T:©
T:©
T:©
T:©
C:Giulio Caccini
Z:©
%%score 1 2
L:1/8
Q:1/4=99
M:4/4
K:C
V:1 treble nm="Soprano" snm="S"
V:2 bass nm="B.C." snm="B.C."
V:1
 A8 | ^G4 G4- | G2 ^G2 A4 | A-A/G/ FE/E/ FE>FG | E4 z2 B2 | ^G2 G2 A4- | A4 ^F4 | G2 ^F2 GF>GA | %8
w: Que-|ste la|_ grim' a-|ma- * * * * * * * * *|re, quest'-|an- go- scio-|* so|pian- * * * * *|
 ^F4 d4- | d4 c4- | c4 B/c/B/c/ B/A/B | c4 G4- | G4 F4 | E8- | E4 z2 A2 | ^G4 A4 | %16
w: to, pian-|* to|_ non _ _ _ _ _ _|è ma|_ san-|gue|_ del|mi- se-|
 A4 _B>c B3/2c/4d/4 | A8 | G2 D2 G4- | G2 G2 A2 A2 | B/c/B/A/ G/B/G/F/ E/F/E/F/ G/F/G/E/ | %21
w: ro cor _ _ _ _|mi-|o, fe- ri-|* to da la|stra- * * * * * * * * * * * * * * *|
 ^FG/F/ G/F/E/F/ G4 | z2 c2 A2 B/G/A/B/ | c2 AB/c/ B2 G2 | E2 ^F/D/E/F/ G2 F>G | A^F A2 E2 G2- | %26
w: * * * * * * * le|del vo- stro _ _ _|sde- * * * gno, del|vo- stro _ _ _ sde- * *|* * gno'ad a- man-|
 G2 G2 F4 | E2 ^F/G/A/B/ c/d/e E2 | E8 | ^FE>FG A4- | A2 ^G2 A/G/A/G/ A/G/F/G/ | A8 | z4 E4 | %33
w: * ti- no,|e- ri- * * * * * * *|o,|ahi _ _ _ las-||so,|e|
 ^C4 C4 | D8 | E8 | D4 z2 G2 | E4 e4 | A2 G2 F/E/D/C/ D/E/F/G/ | E4 G4- | G4 ^F4 | A4 G4- | %42
w: si ne|lan-||gue il|mio spir-|to vi- ta- * * * * * * *|le ch'io|_ mi|sen- to|
 G2 A4 A/G/F/E/ | E8 | E8 | z8 | z4 c4- | c4 B4 | A4 G4- | G4 ^F4 | G4 A4- | A4 G4- | G4 F4 | E8 | %54
w: _ _ mo- * * *|ri-|re,||fe-|* ro|sde- gno'em-|* pio|cor as-|* pro|_ de-|si-|
 F2 G2 A2 B2 | c2 d2 e4- | e/d/c/B/ c/d/B/c/ A/B/^G/A/ G/A/^F | %57
w: |||
 ^G>A G>A ^FG A/4G/4A/4G/4A/4G/4F/4G/4 | A4 z2 E2 | E4 F2 E2 | D4 E>F E/F/G/E/ | F2 E2 FE>FG | %62
w: |re, vo-|le- te pur|ch'io _ _ _ _ _ _|mo- * * * * *|
 E4 z2 B2 | B>c d2 c2 B2 | A6 ^G2 | A2 B>c d4 | B4 z2 EE | E4 z2 EE | ^F4 z2 dd | d8 | %70
w: ra vo-|le- * * * te|pur ch'io|mo- * * *|ra, mo- ri-|ro, mo- ri-|ro, mo- ri-|ro|
 e4- e-e/d/ c/4B/4A/4G/4-G | A>_B c>B c<d B2 | A4 A>B c2 | A8 | B6 TAG | ^F/G/F/G/ A2 F2 E/F/G | %76
w: ma _ _ _ _ _ _ _ _|_ _ _ _ _ _ chi|mo- * * *|re,|un _ _|che _ _ _ v'a- * * * *|
 E^F/G/ A/B/c/d/ e2 E2 | E4 z2 A2 | A6 G2 | F2 D2 FE>FG | E4 z2 B2 | c6 B2 | A6 ^G2 | A2 B>c d4 | %84
w: do- * * * * * * * *|ra, vo-|le- te|pur ch'io mo- * * *|ra, vo-|le- te|pur ch'io|mor- * * *|
 B4 z2 EE | E4 z2 EE | ^F4 z2 dd | d8 | B4 z B/A/ G/F/-F |"^#" F8 | E8 | ^G8 | A4 B4 | c6 TBA | %94
w: ra, mo- ri-|ro, mo- ri-|ro, mo- ri-|ro,|ma chi _ _ _ _|mo-|re,|un|che v'a-|do- * *|
 ^G/E/^F/G/ A/B/c/B/ E/F/G/A/ B/c/d | e2 E^F/^G/ A/G/A/G/ A/G/F/G/ | A8 |] %97
w: ||ra.|
V:2
"^-natural" A,,8 | E,4 E,4 |"^6" E,,2 E,2 ^C,4 |"^-natural" D,4 D,4 |"^4""^# 3" E,4 E,4- | %5
"^6""^(#)" E,2 E,2 C,2 ^C,2 | D,4 D,4 |"^7""^# 6" E,4 E,4 | D,4 D,4 | G,8 | G,4 G,4 | A,4 B,4 | %12
 C4 D4 |"^-natural" A,4 A,2 A,2 |"^-natural" ^G,4 A,4 | B,4 ^C4 |"^# 3""^4" D4 D4 | %17
"^11 # 10" D,4 D,,4 |"^-natural" G,,6 G,2 |"^b""^6""^#" C2 B,2 C2 D2 |"^b" G,2 G,2 C2 B,2 | %21
"^# 6" A,4 G,4 | C2 C,2 F,2 G,2 |"^7""^# 6" A,2 A,2 G,2 G,,2 |"^7" C,2 D,2 E,2 E,2 | %25
"^# 6""^-natural" D,2 A,,4 E,2 |"^-natural" G,2 C,2 D,4 |"^4""^# 3""^(#)" E,4 E,,4 |"^#" A,,8 | %29
"^6" D,4 ^C,2 D,2 | E,4 E,,4 | A,,4 A,4 | ^G,4 G,/A,/G,/A,/ A,/G,/F,/G,/ |"^(#)" A,4 A,4 | %34
 ^F,4 F,4 |"^# 3""^4" G,4 G,4 |"^4""^# 3" G,4 G,4 | C2 C2 A,2 F,2- |"^7" F,F, E,2 D,2 D,2 | %39
"^-natural 6" C,4 C,4 | D,4 D,4 |"^-natural""^6" A,,4 B,,4 |"^-natural" C,4 D,4 |"^4 # 3" E,4 E,4 | %44
"^#""^(-natural)" A,,4 C4- |"^6" C4 B,4 |"^7""^# 6" A,4 A,4 | G,8 |"^6" D,4 B,,4 | C,4 D,4 | %50
"^-natural" E,4 F,4 |"^11""^10" C,4 C,2 B,,2 |"^11""^# 10" A,,4 A,,4 |"^11""^10" A,,4 A,2 G,2 | %54
 F,2 E,2 D,2 C,B,, |"^-natural""^6" A,,4 ^G,,4 |"^-natural" A,,8 | E,8 | %58
"^#""^(-natural)" A,,4 A,,4 | A,,4 D,4 |"^6" D,4 ^C,4 | D,8 | E,4 E,4 | E,4 A,,4 | %64
"^-natural" D,4 E,4 |"^6" F,4 F,4 |"^#" E,4 E,4 |"^#" A,,4 A,,4 | D,,4 D,4 |"^-natural" G,,4 G,4 | %70
 C,4 C,4 |"^b" F,4 G,4 |"^4""^# 3" A,4 A,,4 |"^#" D,8 | G,4 G,,4 | C,4 D,4 |"^4" E,4 E,,4 | %77
"^# 3""^#" A,,4 A,,4 |"^-natural" D,4 ^C,4 | D,4 D,4 |"^#" E,4 E,4 |"^6" A,,4 ^G,,4 | A,,4 E,4 | %83
"^6" F,4 F,4 |"^11# 10""^#""^#" E,4 E,4 |"^#" A,,4 A,,4 | D,4 D,,4 | G,,8 |"^-natural" G,4 E,4 | %89
"^11 # 10" B,,4 B,,4 | E,8 | E,8 | D,4 G,,4 | A,,2 B,,2 C,2 D,2 | E,8 | E,,8 | A,,8 |] %97

